dist/svg/static/system-zhihu-large.svg

<svg id="system-zhihu-large" xmlns="http://www.w3.org/2000/svg" width="48" height="48" viewBox="0 0 48 48">
  <title>system-zhihu</title>
  <g class="audiicon-group audiicon-group--large">
    <circle cx="23.5" cy="23.5" r="22" fill="none" stroke="currentColor" stroke-miterlimit="10" class="audiicon-system-zhihu__circle"/>
    <g class="audiicon-system-zhihu__zhihu">
      <path d="M12,34.5413a4.4588,4.4588,0,0,0,3.6912-.3072c1.82-1.0756,3.1624-5.8058,3.1624-5.8058l4.27,5.2936s.39-2.5195-.0692-3.2313-2.9534-3.5729-2.9534-3.5729l-1.09.9732.7751-3.1321h4.6521s0-1.8438-.91-1.9463-3.7419,0-3.7419,0V17.0761h4.1968s-.05-1.8949-.86-1.8949H16.2981L17.36,12.0568s-1.7192.1024-2.326,1.1781-2.5787,6.607-2.5787,6.607.6573.3074,1.77-.5121a4.4365,4.4365,0,0,0,1.4664-2.2537l2.0227-.1024.05,5.8388s-3.4886-.0512-4.1968,0-1.1122,1.9463-1.1122,1.9463h5.309a18.0374,18.0374,0,0,1-1.82,5.5827A15.9272,15.9272,0,0,1,12,34.5413Z" transform="translate(0)" fill-rule="evenodd" class="audiicon-system-zhihu__character-first"/>
      <path d="M27.7628,34.4108l3.0083-2.165H35V15H25.432V32.2458h1.7092ZM27.4576,16.92h5.5972V30.2871H31.0667l-2.5345,1.9355L27.98,30.2871h-.5219Z" transform="translate(0)" fill-rule="evenodd" class="audiicon-system-zhihu__character-second"/>
    </g>
  </g>
  <rect width="48" height="48" fill="none"/>
</svg>

<?xml version="1.0" encoding="UTF-8" standalone="no"?>
<svg width="48px" height="48px" viewBox="0 0 48 48" version="1.1" xmlns="http://www.w3.org/2000/svg" xmlns:xlink="http://www.w3.org/1999/xlink">
    <!-- Generator: sketchtool 46.2 (44496) - http://www.bohemiancoding.com/sketch -->
    <title>system-zhihu-large</title>
    <desc>Created with sketchtool.</desc>
    <defs></defs>
    <g id="icons-published" stroke="none" stroke-width="1" fill="none" fill-rule="evenodd">
        <g id="briefing" transform="translate(-864.000000, -2074.000000)"></g>
        <g id="system-zhihu-large">
            <circle id="Oval" stroke="#000000" cx="23.5" cy="23.5" r="22"></circle>
            <path d="M12,34.5 C13.2,34.9 14.6,34.8 15.7,34.2 C17.5,33.1 18.9,28.4 18.9,28.4 L23.2,33.7 C23.2,33.7 23.6,31.2 23.1,30.5 C22.6,29.8 20.1,26.9 20.1,26.9 L19,27.9 L19.8,24.8 L24.5,24.8 C24.5,24.8 24.5,23 23.6,22.9 C22.7,22.8 19.9,22.9 19.9,22.9 L19.9,17.2 L24,17.2 C24,17.2 24,15.3 23.1,15.3 L16.3,15.3 L17.4,12.2 C17.4,12.2 15.7,12.3 15.1,13.4 C14.5,14.5 12.5,20 12.5,20 C12.5,20 13.2,20.3 14.3,19.5 C15,18.9 15.5,18.1 15.8,17.2 L17.8,17.1 L17.8,22.9 C17.8,22.9 14.3,22.8 13.6,22.9 C12.9,23 12.5,24.8 12.5,24.8 L17.8,24.8 C17.5,26.7 16.9,28.6 16,30.4 C14.9,32 13.6,33.4 12,34.5 L12,34.5 Z M27.8,34.4 L30.8,32.2 L35,32.2 L35,15 L25.4,15 L25.4,32.2 L27.1,32.2 L27.8,34.4 Z M27.5,16.9 L33.1,16.9 L33.1,30.3 L31.1,30.3 L28.6,32.2 L28,30.3 L27.5,30.3 L27.5,16.9 Z" id="Shape" fill="#000000" fill-rule="nonzero"></path>
        </g>
    </g>
</svg>
